!!!!SEGMENT: pl-wtm--r-247-n--001_noskowski-zygmunt--salve-regina.krn
!!!cenid: 18xx:2152
!!!COM: Noskowski, Zygmunt
!!!COM-rismid: pe106604
!!!CDT: 1846/05/02-1909/07/23
!!!CNT: Polish
!!!OTL: Salve Regina
!!!PDT:
!!!AGN: Sacred
!!!SMS-siglum: PL-Wtm
!!!SMS-shelfmark: R 247/N
!!!SMS-shelfwork: 001 W
!!!SMS-variant:
!!!SMS-altvar:
!!!NIFC-rismid: 1001100561
!!!URL-scan: http://repozytorium.nifc.pl/skany/pl-wtm-nut--r247n
!!!ONB-nifc: UWAGA: w zbiorze: 1. Salve Regina, 2. Nad mogiłą, 3. Veni creator
**kern	**text	**dynam	**kern	**text	**text	**dynam
*part2	*part2	*part2	*part1	*part1	*part1	*part1
*staff2	*staff2	*	*staff1	*staff1	*staff1	*
*I"Basy 1. 2.	*	*	*I"Tenory 1. 2	*	*	*
*I'B I, II	*	*	*I'T I, II	*	*	*
*clefF4	*	*	*clefGv2	*	*	*
*k[b-e-a-d-]	*	*	*k[b-e-a-d-]	*	*	*
*A-:	*	*	*A-:	*	*	*
*M3/4	*	*	*M3/4	*	*	*
=1	=1	=1	=1	=1	=1	=1
*^	*	*	*	*	*	*
!	!	!	!	!LO:TX:t=P:problem:w źróodle brak przenośnika oktawowego	!	!	!
!	!	!	!LO:DY:a:rj	!LO:TX:a:t=Maestoso.	!	!	!
2A-/	2A-\	Sal-	f	2.r	.	.	.
8F/	8F\	-ve	.	.	.	.	.
8G/	8G\	Re-	.	.	.	.	.
=2	=2	=2	=2	=2	=2	=2	=2
(>4C/	(<4C\	-gi-	.	2.r	.	.	.
4D-/)	4D-\)	.	.	.	.	.	.
4F/	4F\	-na,	.	.	.	.	.
=3	=3	=3	=3	=3	=3	=3	=3
4BB-/	4BB-\	ma-	.	2.r	.	.	.
8D-/	8D-\	-ter	.	.	.	.	.
8C/	8C\	mi-	.	.	.	.	.
8E-/	8E-\	-se-	.	.	.	.	.
8BB-/	8BB-\	-ri-	.	.	.	.	.
=4	=4	=4	=4	=4	=4	=4	=4
8.F/	8.F\	-cor-	.	2.r	.	.	.
16E-/	16E-\	-di-	.	.	.	.	.
2E-/	2E-\	-ae,	.	.	.	.	.
=5	=5	=5	=5	=5	=5	=5	=5
*	*	*	*	*^	*	*	*
!	!	!	!LO:DY:b:rj	!	!	!	!	!LO:DY:b:rj
2A-/	2AA-\	.	p	2e-/	2c\	vi-	.	p
8E-/	8C\	.	.	8c/	8G\	-ta	.	.
8F/	8BB-\	.	.	8d-/	8B-\	dul-	.	.
!!LO:LB:g=original
=6	=6	=6	=6	=6	=6	=6	=6	=6
(>8E-/L	(<8E-\L	.	.	4G/	(8G\L	-ce-	.	.
8F/J)	8D-\J)	.	.	.	8F\J)	.	.	.
(>8E-/L	(<8C\L	.	.	4A-/	4F\	-do,	.	.
8D-/J)	8BB-\J)	.	.	.	.	.	.	.
(>8C/L	8AA-\L	.	.	4c/	4F\	et	.	.
8E-/J)	8AAn\J	.	.	.	.	.	.	.
=7	=7	=7	=7	=7	=7	=7	=7	=7
!	!	!	!LO:HP:b	!	!	!	!	!LO:HP:a
4D-/	4BB-\	.	<	4F/	4F\	spes	.	<
(>8D-/L	(<8BB-\L	.	.	(>8G/L	4F\	no-	.	.
8C/J)	8AA-\J)	.	.	8A-/J)	.	.	.	.
4D-/	(<8GG\L	.	[	(>8B-/L	4F\	-stra	.	[
.	8D-\J)	.	.	8F/J)	.	.	.	.
=8	=8	=8	=8	=8	=8	=8	=8	=8
!	!	!	!LO:HP:b	!	!	!	!	!LO:HP:a
(>8E-/L	(<8C\L	.	>	(>8.c/L	4A-\	sal-	.	>
8F/J)	8D-\J)	.	.	.	.	.	.	.
.	.	.	.	16B-/Jk)	.	.	.	]]
4G;>/	4E-;<\	.	]	4B-;>/	4G;<\	-ve.	.	.
!	!	!	!LO:DY:b:rj	!LO:TX:a:i:t=dolce.	!	!	!	!LO:DY:b:rj
4E-/	4E-\	.	p	4E-/	4E-\	Ad	.	p
=9	=9	=9	=9	=9	=9	=9	=9	=9
2E-/	2AA-\	.	.	2c/	2A-\	te	.	.
4F/	4D-\	.	.	4A-/	4A-\	cla-	.	.
=10	=10	=10	=10	=10	=10	=10	=10	=10
!	!	!	!LO:HP:b	!	!	!	!	!LO:HP:a
2F/	2BB-\	.	<	(4.d-/	2A-\	-ma-	.	<
.	.	.	.	8c/)	.	.	.	.
8G/	8E-\	.	[	8B-/	8B-\	-mus	.	.
8G/	8D-\	.	.	8f/	8B-\	e-	.	[
=11	=11	=11	=11	=11	=11	=11	=11	=11
8A-/	8C\	.	.	8e-/	8c\	-xu-	.	.
8A-/	8E-\	.	.	8c/	8c\	-les,	.	.
4A-/	(<8A-\L	.	.	4e-/	4c\	fi-	.	.
!	!	!	!LO:HP:b	!	!	!	!	!LO:HP:a
.	8F\J)	.	>	.	.	.	.	>
4E-/	(<8E-\L	.	.	(>8G/L	4E-\	-lii	.	.
.	8C\J)	.	.	8A-/J)	.	.	.	.
!!LO:LB:g=original
=12	=12	=12	=12	=12	=12	=12	=12	=12
4D-/	(<8D-\L	.	]	(>8F/L	(<8F\L	E-	.	]
.	8BB-\J)	.	.	8c/J)	8A-\J)	.	.	.
8E-/	8E-\	.	.	8B-/	8G\	-ve.	.	.
8r	8ryy	.	.	8r	8ryy	.	.	.
!	!	!	!LO:DY:b:rj	!	!	!	!	!LO:DY:a:rj
4B-/	4B-\	.	mf	4B-/	4B-\	Ad	.	mf
=13	=13	=13	=13	=13	=13	=13	=13	=13
2G/	2BB-\	.	.	2g/	2d-\	te	.	.
!	!	!	!LO:HP:b	!	!	!	!	!LO:HP:a
8G/	8D-\	.	<	8f/	8B-\	sus-	.	<
8B-/	8F\	.	[[	8d-/	8d-\	-pi-	.	[[
=14	=14	=14	=14	=14	=14	=14	=14	=14
!	!	!	!LO:DY:b:rj	!	!	!	!	!LO:DY:a:rj
4B-/	4A-\	.	f	4f/	4d-\	-ra-	.	f
4B-/	4F\	.	.	4en/	4c\	-mus	.	.
4G/	4En\	.	.	4c/	4B-\	ge-	.	.
=15	=15	=15	=15	=15	=15	=15	=15	=15
4F/	4F\	.	.	4d-/	4A-\	-men-	.	.
4F/	4AA-\	.	.	(>8c/L	4F\	-tes	.	.
.	.	.	.	8f/J)	.	.	.	.
(>8E-/L	(<8AA-\L	.	.	(<8c/L	4F\	et	.	.
!	!	!	!LO:HP:b	!	!	!	!	!LO:HP:a
8D-/J)	8BB-\J)	.	>	8B-/J)	.	.	.	>
=16	=16	=16	=16	=16	=16	=16	=16	=16
4C/	4C\	.	.	(>8A-/L	(>8F\L	flen-	.	.
.	.	.	.	8c/J)	8Dn\J)	.	.	.
4C/	4C\	.	]	4G/	4En\	-tes	.	]
!	!	!	!	!LO:TX:t=P:problem:w źródle drugi tekst (trwający 2,5 taktu) zapisany nad górną pięciolinią	!	!	!	!LO:DY:a:rj
4rAA	4rA	.	.	4G/	4r	.	in	p
=17	=17	=17	=17	=17	=17	=17	=17	=17
8r	8ryy	.	.	2B-/	8r	.	hoc	.
!	!	!	!LO:DY:b:rj	!	!	!	!	!LO:DY:b:rj
8F/	8D-\	.	p	.	8G\	in	.	p
4F/	4D-\	.	.	.	4G\	hoc	.	.
4r	4ryy	.	.	8.G/	4r	.	la-	.
.	.	.	.	16B-/	.	.	-chry-	.
*v	*v	*	*	*	*	*	*	*
!!LO:LB:g=original
=18	=18	=18	=18	=18	=18	=18	=18
4r	.	.	(<4c/	4r	.	-ma-	.
*^	*	*	*	*	*	*	*
8F/	8BB-\	.	.	4.d-/)	8G\	la-	.	.
8F/	8AA-\	.	.	.	8A-\	-chry-	.	.
8F/	8GG\	.	.	.	8B-\	-ma-	.	.
8G/	8D-\	.	.	8f/	8B-\	-rum	-rum	.
=19	=19	=19	=19	=19	=19	=19	=19	=19
!	!	!	!LO:HP:b	!	!	!	!	!LO:HP:a
(>2G/	(<4C\	.	<	2.en/	2.c\	va-	.	<
!	!	!	!LO:HP:b	!	!	!	!	!LO:HP:a
.	4En\	.	[ >	.	.	.	.	[ >
4A-/)	4F\)	.	]]	.	.	.	.	]]
=20	=20	=20	=20	=20	=20	=20	=20	=20
!	!	!	!LO:DY:b:rj	!	!	!	!	!LO:DY:b:rj
2B-/	2G\	.	p	2e-X/	2d-\	-le.	.	p
4r	4ryy	.	.	4r	4ryy	.	.	.
=21	=21	=21	=21	=21	=21	=21	=21	=21
!	!	!	!LO:DY:b:rj	!	!	!	!	!LO:DY:b:rj
2A-/	2A-\	.	f	2a-/	2A-\	E-	.	f
(>8F/L	(<8F\L	.	.	(>8f/L	(>8F\L	-ja	.	.
8G/J)	8G\J)	.	.	8g/J)	8G\J)	.	.	.
=22	=22	=22	=22	=22	=22	=22	=22	=22
(>4C/	(<4C\	.	.	(>4c/	(<4c\	er-	.	.
4D-/)	4D-\)	.	.	4d-/)	4d-\)	.	.	.
4F/	4F\	.	.	4f/	4f\	-go	.	.
=23	=23	=23	=23	=23	=23	=23	=23	=23
4BB-/	4BB-\	.	.	4B-/	4B-\	ad-	.	.
(>8D-/L	8D-\L	.	.	8d-/L	8d-\L	-vo-	.	.
8C/J)	8C\J	.	.	8c/J	8c\J	.	.	.
8E-/	8E-\	.	.	8e-/	8e-\	-ca-	.	.
8BB-/	8BB-\	.	.	8B-/	8B-\	-ta	.	.
=24	=24	=24	=24	=24	=24	=24	=24	=24
(>8.F/L	(<8.F\L	.	.	(>8.f/L	(<8.f\L	no-	.	.
16E-/Jk)	16E-\Jk)	.	.	16e-/Jk)	16e-\Jk)	.	.	.
2E-/	2E-\	.	.	2e-/	2e-\	-stra,	.	.
=25	=25	=25	=25	=25	=25	=25	=25	=25
!	!	!	!LO:DY:b:rj	!	!	!	!	!LO:DY:b:rj
!	!	!	!	!	!LO:TX:t=P:problem:w źródle drugi tekst (trwający 2 takty) zapisany nad górną pięciolinią	!	!	!
4G/	4C\	.	p	2e-/	4c\	il-	il-	p
4G/	4C\	.	.	.	4c\	-los	.	.
4r	4ryy	.	.	(<8Bn/L	4r	.	-los	.
.	.	.	.	8c/J)	.	.	.	.
!!LO:LB:g=original
=26	=26	=26	=26	=26	=26	=26	=26	=26
4G-X/	4AA-\	.	.	2e-/	4c\	tu-	tu-	.
4G-/	4AA-\	.	.	.	4c\	-os	.	.
4r	4ryy	.	.	(<8c/L	4r	.	-os	.
.	.	.	.	8B-X/J)	.	.	.	.
=27	=27	=27	=27	=27	=27	=27	=27	=27
!	!	!	!	!	!	!	!	!LO:HP:a
(>8E-/L	(<8C\L	.	.	(>8A-/L	(<8G-X\L	mi-	.	<
!	!	!	!LO:HP:b	!	!	!	!	!
8G-X/J)	8E-\J)	.	<	8c/J)	8A-\J)	.	.	.
8A-/	8G-X\	.	.	8e-/	8c\	-se-	.	.
8A-/	8F\	.	.	8f/	8c\	-ri-	.	.
8B-/	8E-\	.	[	8g-X/	8d-\	-cor-	.	[
8B-/	8E-\	.	.	8g-/	8d-\	-des	.	.
=28	=28	=28	=28	=28	=28	=28	=28	=28
!	!	!	!LO:DY:b:rj	!	!	!	!	!LO:DY:a:rj
8.A-/	8.AA-\	.	f	8.f/	8.c\	o-	.	f
16G-X/	16AA-\	.	.	16e-/	16c\	-cu-	.	.
4G-/	4AA-\	.	.	4e-/	4c\	-los	.	.
4F/	4AAn\	.	.	4f/	4c\	ad	.	.
=29	=29	=29	=29	=29	=29	=29	=29	=29
2F/	2BB-\	.	.	2d-/	(<4c\	nos	.	.
.	.	.	.	.	4B-\)	.	.	.
4F/	4BB-\	.	.	(<8e-/L	4An\	con-	.	.
.	.	.	.	8c/J)	.	.	.	.
=30	=30	=30	=30	=30	=30	=30	=30	=30
(>2F/	(<2.BB-\	.	.	(>8d-/L	(<8B-\L	-ver-	.	.
.	.	.	.	8g-X/J	8e-\J	.	.	.
.	.	.	.	[>2f/	[<2d-\	.	.	.
4G-X/	.	.	.	.	.	.	.	.
=31	=31	=31	=31	=31	=31	=31	=31	=31
!	!	!	!LO:HP:b	!	!	!	!	!
2Gn/	2.E-\)	.	>	4f/]	4d-\]	.	.	.
!	!	!	!	!	!	!	!	!LO:HP:a
.	.	.	.	4d-/	4B-\	.	.	>
4A-/)	.	.	]]	4c/)	4A-\)	.	.	.
=32	=32	=32	=32	=32	=32	=32	=32	=32
2G;>/	2E-;<\	.	.	2B-;>/	2G\	-te	.	]
!	!	!	!LO:DY:b:rj	!	!	!	!	!LO:DY:a:rj
4E-/	4E-\	.	p	4E-/	4E-\	Et	.	p
=33	=33	=33	=33	=33	=33	=33	=33	=33
2E-/	2AA-\	.	.	2c/	2A-\	Je-	.	.
4F/	4D-\	.	.	4A-/	4A-\	-sum	.	.
=34	=34	=34	=34	=34	=34	=34	=34	=34
!	!	!	!LO:HP:b	!	!	!	!	!LO:HP:a
4.F/	4.BB-\	.	<	4.d-/	4.A-\	be-	.	<
8F/	8C\	.	.	8c/	8A-\	-ne-	.	.
8F/	8D-\	.	.	8B-/	8A-\	-di-	.	.
8E-/	8D-\	.	[	8f/	8G\	-ctum	.	[
!!LO:LB:g=original
=35	=35	=35	=35	=35	=35	=35	=35	=35
8E-/	8C\	.	.	8e-/	8A-\	fruc-	.	.
8A-/	8E-\	.	.	8c/	8c\	-tum	.	.
!	!	!	!	!	!	!	!	!LO:HP:a
4A-/	(<8A-\L	.	>	4e-/	4c\	ven-	.	>
.	8F\J)	.	.	.	.	.	.	.
4E-/	(<8E-\L	.	.	(<8G/L	4E-\	-tris	.	.
.	8C\J)	.	.	8A-/J)	.	.	.	]]
=36	=36	=36	=36	=36	=36	=36	=36	=36
(4D-/	(8D-\L	.	]	(>8F/L	(<8F\L	tu-	.	.
.	8BB-\J	.	.	8c/J	8A-\J	.	.	.
4E-/)	4E-\)	.	.	4B-/)	4G\)	.	.	.
4En/	4C\	.	.	4c/	4G\	-i	.	.
=37	=37	=37	=37	=37	=37	=37	=37	=37
!	!	!	!LO:HP:b	!	!	!	!	!LO:HP:a
4F/	4BB-\	.	<	4d-/	4B-\	no-	.	<
4A-/	4F\	.	.	4dn/	4B-\	-bis	.	.
4G/	(<8E-\L	.	.	4e-/	4B-\	post	.	.
.	8D-X\J)	.	.	.	.	.	.	.
=38	=38	=38	=38	=38	=38	=38	=38	=38
!	!	!	!LO:DY:b:rj	!	!	!	!	!LO:DY:a:rj
2A-/	2C\	.	f	(>4e-/	2e-\	hoc	.	f
.	.	.	.	4a-/)	.	.	.	.
4A-/	4D-\	.	.	4f/	(<8e-\L	e-	.	.
.	.	.	.	.	8d-\J)	.	.	.
=39	=39	=39	=39	=39	=39	=39	=39	=39
(<8B-/L	4BB-\	.	.	(>8g/L	4d-\	-xi-	.	.
!	!	!	!LO:HP:b	!	!	!	!	!LO:HP:a
8A-/J)	.	.	>	8f/J)	.	.	.	>
4G/	4C\	.	.	4e-/	4c\	-li-	.	.
4F/	4F\	.	]	4c/	4A-\	-um	.	]
=40	=40	=40	=40	=40	=40	=40	=40	=40
!	!	!	!LO:HP:b	!	!	!	!	!LO:HP:a
2.F/	(<4F\	.	<	[>2.c/	[<2.A-\	os-	.	<
.	4E-\	.	.	.	.	.	.	.
.	4D-\	.	[[	.	.	.	.	[[
=41	=41	=41	=41	=41	=41	=41	=41	=41
4F/	4C\)	.	.	4c/]	4A-\]	.	.	.
!	!	!	!LO:HP:b	!	!	!	!	!LO:HP:a
(>8A-/L	(<4BB-\	.	>	(>4f/	(<4d-\	-ten-	.	>
8F/J	.	.	.	.	.	.	.	.
4E-/)	4E-\)	.	]]	4G/)	4G\)	.	.	.
=42	=42	=42	=42	=42	=42	=42	=42	=42
2C/	2AA-\	.	.	2A-/	2E-\	-de.	.	]
!	!	!	!LO:DY:b:rj	!	!	!	!	!LO:DY:b:rj
4E-/	4E-\	.	pp	4e-/	4e-\	O	.	pp
!!LO:LB:g=original
=43	=43	=43	=43	=43	=43	=43	=43	=43
4E-/	4AA-\	.	.	4a-/	4c\	cle-	.	.
4E-/	4AA-\	.	.	4f/	4c\	-mens,	.	.
8r	8ryy	.	.	8r	8ryy	.	.	.
8E-/	8AA-\	.	.	8g/	8c\	o	.	.
=44	=44	=44	=44	=44	=44	=44	=44	=44
4F/	(<8F\L	.	.	4c/	4A-\	pi-	.	.
.	8E-\J)	.	.	.	.	.	.	.
4F/	(<8D-\L	.	.	4d-/	4A-\	-a,	.	.
.	8C\J)	.	.	.	.	.	.	.
4F/	(>8BB-\L	.	.	4f/	4d-\	o	.	.
.	8C\J)	.	.	.	.	.	.	.
=45	=45	=45	=45	=45	=45	=45	=45	=45
(>8F/L	(<8D-\L	.	.	4B-/	(<8A-\L	dul-	.	.
8E-/J)	8E-\J)	.	.	.	8G\J)	.	.	.
!	!	!	!LO:HP:b	!	!	!	!	!LO:HP:a
(>8F/L	(<8F\L	.	<	(<8d-/L	4A-\	-cis	.	<
8E-/J)	8E-\J)	.	.	8c/J)	.	.	.	.
(>8E-/L	(<8C\L	.	.	(>8e-/L	(<8A-\L	vir-	.	.
8F/J)	8D-\J)	.	[	8B-/J)	8B-\J)	.	.	[
=46	=46	=46	=46	=46	=46	=46	=46	=46
8E-/	8E-\	.	.	8c/	8A-\	-go	.	.
16r	16ryy	.	.	16r	16ryy	.	.	.
!	!	!	!LO:DY:b:rj	!	!	!	!	!LO:DY:b:rj
16A-/	16D-\	.	f	16f/	16d-\	Ma-	.	f
[>2A-/	(<4D-\	.	.	[>2f/	[<2d-\	-ri-	.	.
.	4C\	.	.	.	.	.	.	.
=47	=47	=47	=47	=47	=47	=47	=47	=47
*	*	*	*	*	*	*	*	*^
!	!	!	!	!	!	!	!	!LO:HP:a	!
(>4.A-/]	4BB-\	.	.	(>2f/]	2.d-\]	.	.	>	.
!	!	!	!LO:HP:b	!	!	!	!	!	!LO:HP:b
.	2E-\)	.	>	.	.	.	.	.	>
8F/	.	.	.	.	.	.	.	.	.
4G/)	.	.	]	4e-/)	.	.	.	]	]]
*	*	*	*	*	*	*	*	*v	*v
=48	=48	=48	=48	=48	=48	=48	=48	=48
!LO:N:vis=2	!	!	!LO:DY:b:rj	!	!	!	!	!LO:DY:a:rj
2.A-;>/	2.AA-;<\	.	p	2.e-;>/	2.c;<\	-a!	.	p
*v	*v	*	*	*	*	*	*	*
*	*	*	*v	*v	*	*	*
==	==	==	==	==	==	==
*-	*-	*-	*-	*-	*-	*-
!!!system-decoration: {(s1,s2)}
!!!RDF**dynam: < = "cresc", 'fontstyle="italic"
!!!RDF**kern: > = above
!!!RDF**kern: < = below
!!!EED: Antoni Szymański
!!!EST: 2021-06-01
!!!ENC: Katarzyna Serwa
!!!END: 2021-05-23
